X:19
T: On the Danforth
C: Keith Murphy
S: the Portland Collection, Volume 3
K: A
M: C|
L: 1/4
Q: 1/4=116
%%text Sweet and Lyrical
(c>d)cA | BcF2 | (A>B)c B/A/ | (Bc)cB| !
cc/d/c B/A/ | BcF2 | A>Bc B/A/ |1 BGA2:|2 BG A c|] !
[|:e>fed | cA(Bd) | cA(Bd )| c/B/ABE| !
e>fed | cABd | c/B/ABG|1A2 Ac :|2 A2A2|]
